src/assets/icons/badges.svg

<svg width="20" height="20" viewBox="0 0 20 20" fill="none" xmlns="http://www.w3.org/2000/svg">
<path fill-rule="evenodd" clip-rule="evenodd" d="M1.875 3.4375C1.875 2.57456 2.57456 1.875 3.4375 1.875H7.8125C8.67545 1.875 9.375 2.57456 9.375 3.4375V14.375C9.375 16.4461 7.69607 18.125 5.625 18.125C3.55393 18.125 1.875 16.4461 1.875 14.375V3.4375ZM5.625 15.3125C6.14277 15.3125 6.5625 14.8928 6.5625 14.375C6.5625 13.8572 6.14277 13.4375 5.625 13.4375C5.10723 13.4375 4.6875 13.8572 4.6875 14.375C4.6875 14.8928 5.10723 15.3125 5.625 15.3125Z" fill="#A685FA"/>
<path d="M8.9325 18.125H16.5626C17.4255 18.125 18.1251 17.4254 18.1251 16.5625V12.1875C18.1251 11.3246 17.4255 10.625 16.5626 10.625H16.4461L9.16058 17.9105C9.08626 17.9849 9.01019 18.0563 8.9325 18.125Z" fill="#A685FA"/>
<path d="M10.6152 14.6879L16.0104 9.29267C16.6206 8.68248 16.6206 7.69315 16.0104 7.08296L12.9169 3.98937C12.3067 3.37917 11.3173 3.37917 10.7071 3.98937L10.6249 4.07165V14.375C10.6249 14.4801 10.6216 14.5844 10.6152 14.6879Z" fill="#A685FA"/>
</svg>

<svg xmlns="http://www.w3.org/2000/svg" width="20" height="20" fill="#a685fa" xmlns:v="https://vecta.io/nano"><path fill-rule="evenodd" d="M1.875 3.438c0-.863.7-1.562 1.563-1.562h4.375c.863 0 1.563.7 1.563 1.563v10.938a3.75 3.75 0 1 1-7.5 0V3.438zm3.75 11.875a.94.94 0 0 0 .938-.937.94.94 0 0 0-.937-.937.94.94 0 0 0-.937.938.94.94 0 0 0 .938.938z"/><path d="M8.933 18.125h7.63c.863 0 1.563-.7 1.563-1.562v-4.375c0-.863-.7-1.562-1.562-1.562h-.116l-7.286 7.285-.228.215zm1.682-3.437l5.395-5.395c.61-.61.61-1.6 0-2.21l-3.094-3.094c-.61-.61-1.6-.61-2.21 0l-.082.082v10.303l-.01.313z"/></svg>
